X:070 
T:Green Pigeon (reel), The 
F:file ID: cre.5/070green_p
B:CRE5.209 (ColÃÂÃÂÃÂÃÂºr Glas)
M:4/4
Q:180
R:reel
K:G
"D modal"
FDAD GFEG|FDAD GBAG|FDAD GFED|AdcA GBAG|
FDAD GFEG|FDAD GBAG|FDAD GFED|AdcA G2||
FG|A2AB cAGB|A2AB cdec|A2AB cBcA|AdcA G2FG|
A2AB cAGB|A2AB cdec|d2cA G2FG|Adde dcAG||
"last time"Adde cAGE|D8|]

%%%

